src/assets/icons/body-health-fitness,fancy,sleep.svg

<svg width="48" height="48" viewBox="0 0 48 48" fill="none" xmlns="http://www.w3.org/2000/svg">
<path d="M1.02548 28C1.02548 28.5523 1.47319 29 2.02548 29H20C20.5523 29 21 28.5523 21 28V25.4678C21 24.9155 20.5523 24.4678 20 24.4678H9.88832C9.07448 24.4678 8.60146 23.5475 9.07518 22.8857L20.7877 6.52374C20.9092 6.35398 20.9745 6.15044 20.9745 5.94166V4C20.9745 3.44772 20.5268 3 19.9745 3H2C1.44771 3 1 3.44772 1 4V6.53223C1 7.08451 1.44772 7.53223 2 7.53223H12.1001C12.9137 7.53223 13.3867 8.45211 12.9135 9.11392L1.21207 25.4764C1.09072 25.6461 1.02548 25.8495 1.02548 26.0581V28Z" fill="black"/>
<path opacity="0.8" d="M23.0166 33C23.0166 33.5523 23.4643 34 24.0166 34H35C35.5523 34 36 33.5523 36 33V31.8623C36 31.31 35.5523 30.8623 35 30.8623H29.3897C28.5893 30.8623 28.1133 29.9688 28.5597 29.3045L35.8134 18.5118C35.9242 18.3469 35.9834 18.1527 35.9834 17.954V17C35.9834 16.4477 35.5357 16 34.9834 16H24C23.4477 16 23 16.4477 23 17V18.1377C23 18.69 23.4477 19.1377 24 19.1377H29.603C30.4032 19.1377 30.8793 20.0308 30.4333 20.6951L23.1863 31.4883C23.0757 31.6532 23.0166 31.8472 23.0166 32.0458V33Z" fill="black"/>
<path opacity="0.4" d="M37.0115 40C37.0115 40.5523 37.4592 41 38.0115 41H45C45.5523 41 46 40.5523 46 40V39.7339C46 39.1816 45.5523 38.7339 45 38.7339H41.958C41.1664 38.7339 40.6886 37.8578 41.1174 37.1923L45.8292 29.8787C45.9332 29.7172 45.9885 29.5292 45.9885 29.3371V29C45.9885 28.4477 45.5408 28 44.9885 28H38C37.4477 28 37 28.4477 37 29V29.2661C37 29.8184 37.4477 30.2661 38 30.2661H41.0372C41.8286 30.2661 42.3064 31.1418 41.8781 31.8073L37.1706 39.1214C37.0667 39.2828 37.0115 39.4707 37.0115 39.6626V40Z" fill="black"/>
</svg>

<svg xmlns="http://www.w3.org/2000/svg" width="48" height="48" fill="none" viewBox="0 0 48 48">
  <path fill="#000" d="M1.025 28a1 1 0 001 1H20a1 1 0 001-1v-2.532a1 1 0 00-1-1H9.888a1 1 0 01-.813-1.582L20.788 6.524a1 1 0 00.186-.582V4a1 1 0 00-1-1H2a1 1 0 00-1 1v2.532a1 1 0 001 1h10.1a1 1 0 01.814 1.582L1.212 25.476a1 1 0 00-.187.582V28z"/>
  <path fill="#000" d="M23.017 33a1 1 0 001 1H35a1 1 0 001-1v-1.138a1 1 0 00-1-1h-5.61a1 1 0 01-.83-1.557l7.253-10.793a1 1 0 00.17-.558V17a1 1 0 00-1-1H24a1 1 0 00-1 1v1.138a1 1 0 001 1h5.603a1 1 0 01.83 1.557l-7.247 10.793a1 1 0 00-.17.558V33z" opacity=".8"/>
  <path fill="#000" d="M37.011 40a1 1 0 001 1H45a1 1 0 001-1v-.266a1 1 0 00-1-1h-3.042a1 1 0 01-.84-1.542l4.711-7.313a1 1 0 00.16-.542V29a1 1 0 00-1-1H38a1 1 0 00-1 1v.266a1 1 0 001 1h3.037a1 1 0 01.841 1.541l-4.707 7.314a1 1 0 00-.16.542V40z" opacity=".4"/>
</svg>
